SmartNotes/img/footer-icons/instagram.svg

<svg width="32px" height="32px" viewBox="0 0 32 32" fill="none" xmlns="http://www.w3.org/2000/svg">
<g clip-path="url(#clip0)">
<path d="M16.0053 7.784C11.468 7.784 7.79468 11.4613 7.79468 15.9947C7.79468 20.532 11.472 24.2053 16.0053 24.2053C20.5427 24.2053 24.216 20.528 24.216 15.9947C24.216 11.4573 20.5387 7.784 16.0053 7.784ZM16.0053 21.324C13.06 21.324 10.676 18.9387 10.676 15.9947C10.676 13.0507 13.0613 10.6653 16.0053 10.6653C18.9493 10.6653 21.3347 13.0507 21.3347 15.9947C21.336 18.9387 18.9507 21.324 16.0053 21.324Z" fill="#BCBFBF"/>
<path d="M22.5973 0.10134C19.6533 -0.0359938 12.3613 -0.0293272 9.41467 0.10134C6.82533 0.222673 4.54133 0.848006 2.7 2.68934C-0.377336 5.76668 0.0159978 9.91335 0.0159978 15.9947C0.0159978 22.2187 -0.330669 26.2694 2.7 29.3C5.78933 32.388 9.996 31.984 16.0053 31.984C22.1707 31.984 24.2987 31.988 26.4787 31.144C29.4427 29.9934 31.68 27.344 31.8987 22.5853C32.0373 19.64 32.0293 12.3493 31.8987 9.40268C31.6347 3.78534 28.62 0.378673 22.5973 0.10134ZM27.2573 27.264C25.24 29.2814 22.4413 29.1014 15.9667 29.1014C9.3 29.1014 6.62666 29.2 4.676 27.244C2.42933 25.008 2.836 21.4173 2.836 15.9733C2.836 8.60668 2.08 3.30134 9.47333 2.92267C11.172 2.86267 11.672 2.84267 15.948 2.84267L16.008 2.88267C23.1133 2.88267 28.688 2.13867 29.0227 9.53068C29.0987 11.2173 29.116 11.724 29.116 15.9933C29.1147 22.5827 29.24 25.272 27.2573 27.264Z" fill="#BCBFBF"/>
<path d="M24.5413 9.37868C25.601 9.37868 26.46 8.51967 26.46 7.46002C26.46 6.40037 25.601 5.54135 24.5413 5.54135C23.4817 5.54135 22.6227 6.40037 22.6227 7.46002C22.6227 8.51967 23.4817 9.37868 24.5413 9.37868Z" fill="#BCBFBF"/>
</g>
<defs>
<clipPath id="clip0">
<rect width="32" height="32" fill="white"/>
</clipPath>
</defs>
</svg>

<svg width="32" height="32" fill="none" xmlns="http://www.w3.org/2000/svg"><g clip-path="url(#clip0)" fill="#BCBFBF"><path d="M16.005 7.784a8.21 8.21 0 00-8.21 8.21 8.21 8.21 0 008.21 8.211 8.21 8.21 0 008.211-8.21 8.21 8.21 0 00-8.21-8.211zm0 13.54a5.328 5.328 0 01-5.329-5.33 5.328 5.328 0 015.33-5.329 5.329 5.329 0 015.329 5.33 5.327 5.327 0 01-5.33 5.329z"/><path d="M22.597.101c-2.944-.137-10.236-.13-13.182 0C6.825.223 4.54.848 2.7 2.69-.377 5.767.016 9.913.016 15.995c0 6.224-.347 10.274 2.684 13.305 3.09 3.088 7.296 2.684 13.305 2.684 6.166 0 8.294.004 10.474-.84 2.964-1.15 5.201-3.8 5.42-8.559.138-2.945.13-10.236 0-13.182C31.635 3.785 28.62.379 22.597.1zm4.66 27.163c-2.017 2.017-4.816 1.837-11.29 1.837-6.667 0-9.34.099-11.291-1.857-2.247-2.236-1.84-5.827-1.84-11.27 0-7.367-.756-12.673 6.637-13.051 1.699-.06 2.199-.08 6.475-.08l.06.04c7.105 0 12.68-.744 13.015 6.648.076 1.686.093 2.193.093 6.462-.001 6.59.124 9.279-1.859 11.271z"/><path d="M24.541 9.379a1.919 1.919 0 100-3.838 1.919 1.919 0 000 3.838z"/></g><defs><clipPath id="clip0"><path fill="#fff" d="M0 0h32v32H0z"/></clipPath></defs></svg>
